packages/editor-ui/public/static/form-grey.svg

<?xml version="1.0" encoding="UTF-8" standalone="no"?>
<svg
   width="50"
   height="50"
   viewBox="0 0 50 50"
   fill="none"
   version="1.1"
   id="svg1"
   sodipodi:docname="form-trigger-icon.svg"
   inkscape:version="1.3 (0e150ed6c4, 2023-07-21)"
   xmlns:inkscape="http://www.inkscape.org/namespaces/inkscape"
   xmlns:sodipodi="http://sodipodi.sourceforge.net/DTD/sodipodi-0.dtd"
   xmlns="http://www.w3.org/2000/svg"
   xmlns:svg="http://www.w3.org/2000/svg">
  <defs
     id="defs1" />
  <sodipodi:namedview
     id="namedview1"
     pagecolor="#ffffff"
     bordercolor="#000000"
     borderopacity="0.25"
     inkscape:showpageshadow="2"
     inkscape:pageopacity="0.0"
     inkscape:pagecheckerboard="0"
     inkscape:deskcolor="#d1d1d1"
     inkscape:zoom="16.44"
     inkscape:cx="25"
     inkscape:cy="25"
     inkscape:window-width="1920"
     inkscape:window-height="1023"
     inkscape:window-x="0"
     inkscape:window-y="29"
     inkscape:window-maximized="1"
     inkscape:current-layer="svg1" />
  <path
     d="M47.2666 22.5544C47.2646 22.8648 47.1413 23.162 46.9229 23.3826L40.1183 30.1792C39.9013 30.4029 39.6017 30.5272 39.2901 30.523C38.9789 30.5254 38.6801 30.4012 38.462 30.1792C38.2444 29.9585 38.1225 29.661 38.1225 29.3511C38.1225 29.0412 38.2444 28.7437 38.462 28.523L44.4387 22.5542L43.1262 21.2417L41.7434 22.6558L28.595 35.7808L23.9779 36.5621L24.7592 31.945L25.0951 31.609L27.6576 34.1637C27.8725 34.3906 28.1734 34.5154 28.4857 34.5075C28.7974 34.5125 29.0974 34.3882 29.3139 34.1637C29.5315 33.943 29.6534 33.6455 29.6534 33.3356C29.6534 33.0257 29.5315 32.7282 29.3139 32.5075L26.7514 29.945L35.0014 21.6716L39.2905 17.3825L43.0484 21.0934L44.6655 19.4762L46.9234 21.734C47.1413 21.9517 47.2648 22.2464 47.2671 22.5544L47.2666 22.5544ZM29.9854 37.7028L33.0166 34.6715V42.9682C33.0166 43.3826 32.8521 43.78 32.5589 44.073C32.266 44.3662 31.8685 44.5307 31.4541 44.5307H4.29785C3.88347 44.5307 3.48602 44.3661 3.19302 44.073C2.89989 43.7801 2.73535 43.3826 2.73535 42.9682V14.8432C2.73486 14.4382 2.89177 14.0489 3.17285 13.7573L9.47744 7.22602V12.5698H6.25085C5.83223 12.5698 5.44535 12.7931 5.23606 13.1557C5.02659 13.5183 5.02659 13.9649 5.23606 14.3276C5.44537 14.6902 5.83227 14.9135 6.25085 14.9135H10.6804C10.9913 14.9135 11.2893 14.7899 11.5091 14.5702C11.7288 14.3505 11.8523 14.0525 11.8523 13.7416V5.46826H31.454C31.8684 5.46826 32.2658 5.63281 32.5588 5.92593C32.852 6.21889 33.0165 6.61635 33.0165 7.03076V20.312L22.8602 30.4683C22.691 30.6424 22.5769 30.8625 22.5321 31.1011L21.4305 37.7103C21.3705 38.0843 21.4924 38.4643 21.7587 38.7337C21.9782 38.9536 22.2761 39.0771 22.5868 39.0774H22.7821L29.3838 37.9758C29.6064 37.9448 29.8154 37.8497 29.9853 37.7024L29.9854 37.7028ZM8.98535 21.7028C8.98747 22.013 9.11149 22.3099 9.33089 22.5291C9.55013 22.7485 9.84702 22.8725 10.1572 22.8746H25.4231C25.8417 22.8746 26.2286 22.6513 26.4379 22.2887C26.6473 21.9261 26.6473 21.4795 26.4379 21.1169C26.2285 20.7542 25.8416 20.5309 25.4231 20.5309H10.1572C9.84636 20.5309 9.54835 20.6545 9.3286 20.8742C9.10888 21.0939 8.98534 21.392 8.98534 21.7028L8.98535 21.7028ZM19.6962 36.4686C19.6962 36.1577 19.5727 35.8597 19.3529 35.64C19.1332 35.4203 18.8352 35.2967 18.5243 35.2967H10.1572C9.73859 35.2967 9.35171 35.52 9.14242 35.8826C8.93295 36.2453 8.93295 36.6919 9.14242 37.0545C9.35173 37.4171 9.73863 37.6404 10.1572 37.6404H18.5243C18.8352 37.6404 19.1332 37.5169 19.3529 37.2972C19.5726 37.0774 19.6962 36.7794 19.6962 36.4685V36.4686ZM20.5556 29.0778C20.5556 28.7669 20.432 28.4689 20.2123 28.2491C19.9926 28.0294 19.6945 27.9059 19.3837 27.9059H10.157C9.73838 27.9059 9.35151 28.1292 9.14222 28.4918C8.93274 28.8544 8.93274 29.3011 9.14222 29.6637C9.35152 30.0263 9.73842 30.2496 10.157 30.2496H19.3837C19.695 30.2517 19.9943 30.1288 20.2145 29.9086C20.4348 29.6884 20.5576 29.3891 20.5555 29.0777L20.5556 29.0778ZM45.751 18.6169C46.042 18.3241 46.2054 17.9281 46.2054 17.5154C46.2054 17.1026 46.042 16.7066 45.751 16.4138L44.1104 14.7731C43.8176 14.4821 43.4216 14.3187 43.0088 14.3187C42.596 14.3187 42.2 14.4821 41.9072 14.7731L40.9775 15.7028L44.8291 19.5309L45.751 18.6169Z"
     fill="#00B7BC"
     id="path1"
     style="fill:#7d7d87;fill-opacity:1" />
</svg>

<svg xmlns="http://www.w3.org/2000/svg" width="50" height="50" fill="none"><path fill="#00B7BC" d="M47.267 22.554c-.002.31-.126.608-.344.829l-6.805 6.796a1.13 1.13 0 0 1-.828.344 1.15 1.15 0 0 1-.828-.344 1.18 1.18 0 0 1 0-1.656l5.977-5.969-1.313-1.312-1.383 1.414L28.595 35.78l-4.617.781.781-4.617.336-.336 2.563 2.555c.214.227.515.351.828.343.311.006.611-.119.828-.343a1.18 1.18 0 0 0 0-1.657l-2.563-2.562 8.25-8.273 4.29-4.29 3.757 3.711 1.617-1.617 2.258 2.258c.218.218.342.512.344.82m-17.282 15.15 3.032-3.032v8.297a1.56 1.56 0 0 1-1.563 1.563H4.298a1.56 1.56 0 0 1-1.563-1.563V14.843c0-.405.157-.794.438-1.086l6.304-6.531v5.344H6.251a1.172 1.172 0 1 0 0 2.344h4.43a1.17 1.17 0 0 0 1.171-1.172V5.468h19.602a1.56 1.56 0 0 1 1.563 1.563v13.281L22.86 30.468a1.24 1.24 0 0 0-.328.633l-1.102 6.61c-.06.373.062.753.329 1.023.22.22.517.343.828.343h.195l6.602-1.101a1.16 1.16 0 0 0 .601-.274m-21-16a1.18 1.18 0 0 0 1.172 1.172h15.266a1.172 1.172 0 1 0 0-2.344H10.157a1.17 1.17 0 0 0-1.172 1.172m10.711 14.766a1.17 1.17 0 0 0-1.172-1.172h-8.367a1.172 1.172 0 1 0 0 2.343h8.367a1.17 1.17 0 0 0 1.172-1.172m.86-7.391a1.17 1.17 0 0 0-1.172-1.172h-9.227a1.172 1.172 0 1 0 0 2.344h9.227a1.164 1.164 0 0 0 1.171-1.172M45.75 18.617a1.563 1.563 0 0 0 0-2.203l-1.64-1.64a1.563 1.563 0 0 0-2.204 0l-.93.929 3.852 3.828z" style="fill:#7d7d87;fill-opacity:1"/></svg>
